svg/fluentui-system-icons/ic_fluent_flip_vertical_28_filled.svg

<svg width="28" height="28" viewBox="0 0 28 28" fill="none" xmlns="http://www.w3.org/2000/svg">
<path d="M23.5431 2.16025C23.828 2.3445 24.0001 2.66067 24.0001 3V12C24.0001 12.5523 23.5524 13 23.0001 13H3.0001C2.52869 13 2.1213 12.6708 2.02237 12.2099C1.92344 11.7489 2.15984 11.2815 2.58973 11.0881L22.5897 2.08808C22.8992 1.94883 23.2581 1.97601 23.5431 2.16025ZM7.65918 11H22.0001V4.54659L7.65918 11ZM24.0003 25.25C24.0003 25.506 23.8698 25.7443 23.654 25.8821C23.4383 26.0199 23.1672 26.0381 22.935 25.9305L2.43497 16.4305C2.1156 16.2825 1.94213 15.9323 2.0179 15.5885C2.09368 15.2448 2.39832 15 2.75032 15H23.2503C23.6645 15 24.0003 15.3358 24.0003 15.75V25.25Z" fill="#212121"/>
</svg>

<svg xmlns="http://www.w3.org/2000/svg" width="28" height="28"><path d="M23.543 2.16A1 1 0 0 1 24 3v9a1 1 0 0 1-1 1H3a1 1 0 0 1-.41-1.912l20-9a1 1 0 0 1 .953.072ZM7.66 11H22V4.547L7.66 11ZM24 25.25a.75.75 0 0 1-1.065.68l-20.5-9.5A.75.75 0 0 1 2.75 15h20.5a.75.75 0 0 1 .75.75v9.5Z"/></svg>
